icons/rotate-right.svg

<?xml version="1.0" standalone="no"?><!-- Generator: Gravit.io --><svg xmlns="http://www.w3.org/2000/svg" xmlns:xlink="http://www.w3.org/1999/xlink" width="96" height="96"><path d=" M 74.58054280916083 42.24441860386 C 73.41236735325543 35.90068053909991 70.3318676489896 30.026139558988763 65.70572809000083 25.4 C 59.70572809000084 19.4 51.60572809000084 16 43.10572809000084 16 C 34.60572809000084 16 26.505728090000837 19.4 20.505728090000837 25.4 C 14.505728090000838 31.4 11.105728090000838 39.5 11.105728090000838 48 C 11.105728090000838 56.5 14.505728090000838 64.6 20.505728090000837 70.6 C 26.505728090000837 76.6 34.60572809000084 80 43.10572809000084 80 C 44.20572809000084 80 45.20572809000084 80.4 45.905728090000835 81.2 C 46.70572809000084 81.9 47.10572809000084 82.9 47.10572809000084 84 C 47.10572809000084 85.1 46.70572809000084 86.1 45.905728090000835 86.8 C 45.20572809000084 87.6 44.20572809000084 88 43.10572809000084 88 C 32.50572809000084 88 22.305728090000837 83.8 14.805728090000837 76.3 C 7.305728090000838 68.8 3.105728090000838 58.6 3.105728090000838 48 C 3.105728090000838 37.4 7.305728090000838 27.2 14.805728090000837 19.7 C 22.305728090000837 12.2 32.50572809000084 8 43.10572809000084 8 C 53.70572809000084 8 63.905728090000835 12.2 71.40572809000084 19.7 C 76.96533551269818 25.259607422697343 80.71160116665087 32.302858110731236 82.27792620250084 39.89288833796 L 85.20572809000083 32.6 C 85.50572809000084 31.7 86.30572809000084 30.9 87.30572809000084 30.5 C 88.30572809000084 30 89.40572809000084 30 90.40572809000084 30.4 C 91.30572809000084 30.8 92.10572809000084 31.6 92.50572809000084 32.6 C 93.00572809000084 33.5 93.00572809000084 34.6 92.60572809000084 35.6 L 86.60572809000084 50.4 C 85.70572809000083 53 83.20572809000083 54.8 80.50572809000084 55 C 79.90572809000084 55 79.40572809000084 54.9 78.80572809000084 54.7 L 76.30572809000084 53.8 L 63.20572809000084 43.5 C 62.405728090000835 42.8 61.80572809000084 41.9 61.70572809000084 40.8 C 61.60572809000084 39.8 61.905728090000835 38.7 62.50572809000084 37.9 C 63.20572809000084 37 64.10572809000084 36.5 65.20572809000083 36.4 C 66.30572809000084 36.2 67.30572809000084 36.5 68.20572809000083 37.2 L 74.58054280916083 42.24441860386 Z " fill="#454545" stroke="none"/><mask id="_mask_12cL3SgQogSNEOjJ7tQluD9cVFfkXXr1"><path d=" M 74.58054280916083 42.24441860386 C 73.41236735325543 35.90068053909991 70.3318676489896 30.026139558988763 65.70572809000083 25.4 C 59.70572809000084 19.4 51.60572809000084 16 43.10572809000084 16 C 34.60572809000084 16 26.505728090000837 19.4 20.505728090000837 25.4 C 14.505728090000838 31.4 11.105728090000838 39.5 11.105728090000838 48 C 11.105728090000838 56.5 14.505728090000838 64.6 20.505728090000837 70.6 C 26.505728090000837 76.6 34.60572809000084 80 43.10572809000084 80 C 44.20572809000084 80 45.20572809000084 80.4 45.905728090000835 81.2 C 46.70572809000084 81.9 47.10572809000084 82.9 47.10572809000084 84 C 47.10572809000084 85.1 46.70572809000084 86.1 45.905728090000835 86.8 C 45.20572809000084 87.6 44.20572809000084 88 43.10572809000084 88 C 32.50572809000084 88 22.305728090000837 83.8 14.805728090000837 76.3 C 7.305728090000838 68.8 3.105728090000838 58.6 3.105728090000838 48 C 3.105728090000838 37.4 7.305728090000838 27.2 14.805728090000837 19.7 C 22.305728090000837 12.2 32.50572809000084 8 43.10572809000084 8 C 53.70572809000084 8 63.905728090000835 12.2 71.40572809000084 19.7 C 76.96533551269818 25.259607422697343 80.71160116665087 32.302858110731236 82.27792620250084 39.89288833796 L 85.20572809000083 32.6 C 85.50572809000084 31.7 86.30572809000084 30.9 87.30572809000084 30.5 C 88.30572809000084 30 89.40572809000084 30 90.40572809000084 30.4 C 91.30572809000084 30.8 92.10572809000084 31.6 92.50572809000084 32.6 C 93.00572809000084 33.5 93.00572809000084 34.6 92.60572809000084 35.6 L 86.60572809000084 50.4 C 85.70572809000083 53 83.20572809000083 54.8 80.50572809000084 55 C 79.90572809000084 55 79.40572809000084 54.9 78.80572809000084 54.7 L 76.30572809000084 53.8 L 63.20572809000084 43.5 C 62.405728090000835 42.8 61.80572809000084 41.9 61.70572809000084 40.8 C 61.60572809000084 39.8 61.905728090000835 38.7 62.50572809000084 37.9 C 63.20572809000084 37 64.10572809000084 36.5 65.20572809000083 36.4 C 66.30572809000084 36.2 67.30572809000084 36.5 68.20572809000083 37.2 L 74.58054280916083 42.24441860386 Z " fill="white" stroke="none"/></mask><path d=" M 74.58054280916083 42.24441860386 C 73.41236735325543 35.90068053909991 70.3318676489896 30.026139558988763 65.70572809000083 25.4 C 59.70572809000084 19.4 51.60572809000084 16 43.10572809000084 16 C 34.60572809000084 16 26.505728090000837 19.4 20.505728090000837 25.4 C 14.505728090000838 31.4 11.105728090000838 39.5 11.105728090000838 48 C 11.105728090000838 56.5 14.505728090000838 64.6 20.505728090000837 70.6 C 26.505728090000837 76.6 34.60572809000084 80 43.10572809000084 80 C 44.20572809000084 80 45.20572809000084 80.4 45.905728090000835 81.2 C 46.70572809000084 81.9 47.10572809000084 82.9 47.10572809000084 84 C 47.10572809000084 85.1 46.70572809000084 86.1 45.905728090000835 86.8 C 45.20572809000084 87.6 44.20572809000084 88 43.10572809000084 88 C 32.50572809000084 88 22.305728090000837 83.8 14.805728090000837 76.3 C 7.305728090000838 68.8 3.105728090000838 58.6 3.105728090000838 48 C 3.105728090000838 37.4 7.305728090000838 27.2 14.805728090000837 19.7 C 22.305728090000837 12.2 32.50572809000084 8 43.10572809000084 8 C 53.70572809000084 8 63.905728090000835 12.2 71.40572809000084 19.7 C 76.96533551269818 25.259607422697343 80.71160116665087 32.302858110731236 82.27792620250084 39.89288833796 L 85.20572809000083 32.6 C 85.50572809000084 31.7 86.30572809000084 30.9 87.30572809000084 30.5 C 88.30572809000084 30 89.40572809000084 30 90.40572809000084 30.4 C 91.30572809000084 30.8 92.10572809000084 31.6 92.50572809000084 32.6 C 93.00572809000084 33.5 93.00572809000084 34.6 92.60572809000084 35.6 L 86.60572809000084 50.4 C 85.70572809000083 53 83.20572809000083 54.8 80.50572809000084 55 C 79.90572809000084 55 79.40572809000084 54.9 78.80572809000084 54.7 L 76.30572809000084 53.8 L 63.20572809000084 43.5 C 62.405728090000835 42.8 61.80572809000084 41.9 61.70572809000084 40.8 C 61.60572809000084 39.8 61.905728090000835 38.7 62.50572809000084 37.9 C 63.20572809000084 37 64.10572809000084 36.5 65.20572809000083 36.4 C 66.30572809000084 36.2 67.30572809000084 36.5 68.20572809000083 37.2 L 74.58054280916083 42.24441860386 Z " fill="none" stroke="none" stroke-width="16" mask="url(#_mask_12cL3SgQogSNEOjJ7tQluD9cVFfkXXr1)"/></svg>

<svg xmlns="http://www.w3.org/2000/svg" width="96" height="96"><path d="M74.58 42.244A32.028 32.028 0 0 0 65.707 25.4c-6-6-14.1-9.4-22.6-9.4-8.5 0-16.6 3.4-22.6 9.4s-9.4 14.1-9.4 22.6c0 8.5 3.4 16.6 9.4 22.6s14.1 9.4 22.6 9.4c1.1 0 2.1.4 2.8 1.2.8.7 1.2 1.7 1.2 2.8 0 1.1-.4 2.1-1.2 2.8-.7.8-1.7 1.2-2.8 1.2-10.6 0-20.8-4.2-28.3-11.7-7.5-7.5-11.7-17.7-11.7-28.3 0-10.6 4.2-20.8 11.7-28.3 7.5-7.5 17.7-11.7 28.3-11.7 10.6 0 20.8 4.2 28.3 11.7a39.985 39.985 0 0 1 10.872 20.193l2.928-7.293c.3-.9 1.1-1.7 2.1-2.1 1-.5 2.1-.5 3.1-.1.9.4 1.7 1.2 2.1 2.2.5.9.5 2 .1 3l-6 14.8c-.9 2.6-3.4 4.4-6.1 4.6-.6 0-1.1-.1-1.7-.3l-2.5-.9-13.1-10.3c-.8-.7-1.4-1.6-1.5-2.7-.1-1 .2-2.1.8-2.9.7-.9 1.6-1.4 2.7-1.5 1.1-.2 2.1.1 3 .8l6.375 5.044z" fill="#454545"/></svg>
